X:1
T:Christ unser Herr
T:Wolff Heintz
T:Source : DDT 34---Leipzig---Breitkopf & Härtel---J.Wolf---1908. First print : Newe Deudsche Geistliche Gesenge---Wittemberg---G.Rhau---1544. Editor : André Vierendeels (03/08/17).
T:Notes : Original clefs : C1, C4, C4, F4 Original note values have been halved Editorial accidentals above the staff
T:-natural
T:Christ unser Herr
T:©
T:©
T:©
T:©
T:©
C:Wolff Heintz
Z:©
%%score [ 1 [ 2 3 ] 4 ]
L:1/8
Q:1/4=120
M:2/2
K:C
V:1 treble nm="Alto" snm="A"
V:2 treble-8 nm="Tenor 1" snm="T 1"
V:3 treble-8 nm="Tenor 2" snm="T 2"
V:4 bass nm="Bass" snm="B"
V:1
 D8 | F4 G4 | A8 | z4 z2 d2 | c2 BA BAGF | E2 A4 G2 | A4 z2 F2 | E3 D EF G2 | E2 F2 G2 E2- | %9
w: Christ|un- ser|Herr|zum|Jor- * * * * * *|* * dan|kam, nach|sei- * * * *|* nes Va- ters|
w: Von|Sankt Jo-|hans|die|Tau- * * * * * *|* * fe|nahm, sein|Werk _ _ _ _|_ und Amt zu'r-|
"^#" ED D4 C2 |1 D8 :|2 D8 || D8 | D6 D2 | C4 C4 | z2 D4 D2 | C4 z2 F2 | FEFG A4 | G2 AB c2 B2- | %19
w: _ _ Wil- *|len,||Da|wolt er|stif- ten|uns ein|Bad, zu|wa- * * * schen|uns _ _ _ von|
w: * * fül- *||len.||||||||
 BA A4 G2 | A4 z2 F2 | E2 A4 G2 | F4 E4 | z2 E4 D2 | E4 z2 F2 | D2 F3 E D2 | C4 D2 E2- | E2 D4 C2 | %28
w: _ _ Sün- *|den, er-|säu- * fen|auch den|bit- tern|Tod durch|sein selbs _ _|Blut und Wun-||
w: |||||||||
 D4 z2 F2 | FEFG A2 A2 | GABc BAGF | E2 A4 G2 | A8 |] %33
w: den; Es|galt _ _ _ _ ein|neu- * * * * * * *|es Le- *|ben.|
w: |||||
V:2
 d8 |"^b""^b" d3 c BA B2 | A4 z4 | A4 D4 | E4 z4 | e4 e4 | e4 z2 A2 | A4 G4 | c2 d2 B2 c2 | %9
w: Christ|un- * * * ser|Herr|zum Jor-|dan,|Jor- dan|kam, nach|sei- nes|Va- * * ters|
w: Von|Sankt _ _ _ Jo-|hans|die Tau-|fe,|tau- fe|nahm, sein|Werk unt|Amt _ zu er-|
 B2 A4 A2 |1 F8 :|2 F4 D3 E || F2 G2 A4 | B6 B2 | A4 E4 | E2 F2 D4 | E4 z2 D2 | A4 A4 | e4 f2 g2- | %19
w: Wil- * *|len,|Da wolt _|_ _ _|* er|stif- ten|uns _ ein|Bad, zu|wa- schen|uns von Sün-|
w: fül- * len.|_|||||||||
 g2 f2 e4 | c4 z2 d2 | e4 e4 | c4 c4 | c2 c2 A3 B | c4 z2 A2 | F2 A4 D2 | E4 B2 c2- | cB A4 A2 | %28
w: |den, er-|säu- fen|auch den|bit- tern Tod _|_ durch|sein selbs _|Blut und Wun-|* * * den;|
w: |||||||||
 F4 z2 A2 | A4 z2 A2 | B4 B4 | c3 d e4 | e8 |] %33
w: _ Es|galt, es|galt ein|neu- es Le-|ben.|
w: |||||
V:3
 z8 | z8 | D8 | F4 G4 | A4 G4 | c4 B4 | A4 z2 A2 | c4 B4 | A4 G4 | F4 E4 |1 D8 :|2 D8 || z4 z2 D2 | %13
w: ||Christ|un- ser|Herr zum|Jor- dan|kam, nach|sei- nes|Va- ters|Wil- *|len,||Da|
w: ||Von|Sankt Jo-|hans die|Tau- fe|nahm, sein|Werk und|Amt zu'r-|ful- *||len.||
 G4 F4 | E4 A4 | A4 G4 | A4 z2 A2 | d4 d4 | e4 c2 d2- | d2 c2 B4 | A4 z2 A2 | c4 B4 | A4 G4 | %23
w: wolt er|stif- ten|uns ein|Bad, zu|wa- schen|uns von Sün-||den, er|säu- fen|auch den|
w: ||||||||||
 A4 F4 | E4 z2 D2 | F4 G4 | A4 F2 G2- | G2 F2 E4 | D4 z2 d2 | d4 d4 | e4 d4 | c4 B4 | A8 |] %33
w: bit- tern|Tod durch|sein selbs|Blut und Wun-||den; Es|galt ein|neu- es|Le- *|ben.|
w: ||||||||||
V:4
 z8 | z8 | D,8 |"^b""^b" D,3 C, B,,A,, B,,2 | A,,4 z2 E,2 | C,2 A,,2 E,4 | A,,4 z2 D,2 | A,,4 E,4 | %8
w: ||Christ|un- * * * ser|Herr zum|Jor- * dan|kam, nach|sei- nes|
w: ||Von|Sankt _ _ _ Jo-|hans die|Tau- * fe|nahm, sein|Werk und|
 A,,2 D,2 E,2 C,2 | z2 D,2 A,,4 |1 z8 :|2 A,3 G, F,3 E, || D,2 G,,2 D,4 | G,,6 G,,2 | %14
w: Va- * * ters|Wil- len,||Da _ _ _|_ _ _|wolt er|
w: Amt _ _ zu'r-|fül- len.|||||
 A,,4 A,,3 B,, | C,2 D,2 B,,4 | A,,4 z2 D,2 | D,4 F,4 | E,4 A,2 G,2- | G,2 A,2 E,4 | F,4 z2 D,2 | %21
w: stif- ten _|_ uns ein|Bad zu|wa- schen|uns von Sün-||den, er-|
w: |||||||
 A,,4 E,4 | F,4 C,4 | z2 A,,2 D,4 | A,,4 z2 D,2 | D,3 C, B,,A,, B,,2 | A,,4 D,2 C,2- | %27
w: säu- fen|auch den|bit- tern|Tod durch|sein _ _ _ selbs|Blut und Wun-|
w: ||||||
 C,2 D,2 A,,4 | A,4 z2 D,2 | D,4 F,4 | E,4 z2 G,2 | A,4 E,4 | A,,8 |] %33
w: |den; Es|galt _|ein neu-|es Le-|ben.|
w: ||||||

